packages/icons/svg/Fill/unlock.svg

<svg fill="none" height="24" viewBox="0 0 24 24" width="24" xmlns="http://www.w3.org/2000/svg"><path clip-rule="evenodd" d="m12 14c-.552 0-1 .448-1 1s.448 1 1 1 1-.448 1-1-.448-1-1-1zm0 3.9999c-1.654 0-3.00001-1.346-3.00001-3s1.34601-3 3.00001-3 3 1.346 3 3-1.346 3-3 3zm5-9.9999h-7.00003v-2c0-1.103.89703-2 2.00003-2s2 .897 2 2c0 .553.447 1 1 1s1-.447 1-1c0-2.206-1.794-4-4-4-2.20603 0-4.00003 1.794-4.00003 4v2h-1c-1.654 0-3 1.346-3 3v8c0 1.654 1.346 3 3 3h10.00003c1.654 0 3-1.346 3-3v-8c0-1.654-1.346-3-3-3z" fill="#6b7280" fill-rule="evenodd"/></svg>

<svg width="24" height="24" viewBox="0 0 24 24" fill="none" xmlns="http://www.w3.org/2000/svg">
<g id="Icon/Fill/unlock">
<path id="Mask" fill-rule="evenodd" clip-rule="evenodd" d="M12 14C11.448 14 11 14.448 11 15C11 15.552 11.448 16 12 16C12.552 16 13 15.552 13 15C13 14.448 12.552 14 12 14ZM12 18C10.346 18 9 16.654 9 15C9 13.346 10.346 12 12 12C13.654 12 15 13.346 15 15C15 16.654 13.654 18 12 18ZM17 8H10V6C10 4.897 10.897 4 12 4C13.103 4 14 4.897 14 6C14 6.553 14.447 7 15 7C15.553 7 16 6.553 16 6C16 3.794 14.206 2 12 2C9.794 2 8 3.794 8 6V8H7C5.346 8 4 9.346 4 11V19C4 20.654 5.346 22 7 22H17C18.654 22 20 20.654 20 19V11C20 9.346 18.654 8 17 8Z" fill="#000000"/>
</g>
</svg>
